X:56
T:Maid of Lodi, The
T:Air
S:John Moore's Book 2
Z:Transcribed by Edmund Spriggs 04/2021
%%VWML: Moore1-4494-p42-0
F:http://www.vwml.org/record/Moore2/4494/p42
M:6/8
L:1/8
K:G
D|G2GB2G|F Ez1z2c|(Bd) G (Ad) F|{A}G2z1z2D|
G2GB2{c2 B2 A2} G|F Ez1z2c|(Bd) G (Ad) F|{A}G2z1z2G|
F2Dd2F|A Gz1z2G|F2Dd2{^c/ d/ =c/ A/} F|G3z2D|
d2d{e/} d {c} B {A} G|F E2 !fermata!(e3 {^de fg e})|(dB) G (Ad) F|G3z2D|
d2d{e/} d {c} B {A} G|FE2 !fermata!(e3 {g f b g f e)}| (dB) G (Ad) F|{A}G2 {F/}|]

